img/Before footer logo.svg

<svg width="644" height="120" viewBox="0 0 644 120" fill="none" xmlns="http://www.w3.org/2000/svg">
<path fill-rule="evenodd" clip-rule="evenodd" d="M89.6787 25C90.7657 25 91.6469 25.9226 91.6471 27.0604V46.4326L91.654 46.4334H91.6594C100.159 46.6531 107 53.7531 107 62.5C107 71.2512 100.152 78.3525 91.6471 78.5658V91.3462C91.6469 96.1254 87.9457 100 83.3801 100H70.7413L70.7051 99.6298C69.9489 91.8598 63.7648 85.7703 56.1857 85.5818L55.8235 85.5769C48.0801 85.577 41.7101 91.7364 40.9419 99.6298L40.9058 100H21.9683C20.8813 99.9999 20.0002 99.0772 20 97.9396V27.0604C20.0002 25.9227 20.8814 25.0001 21.9683 25H89.6787ZM44.4072 46.8407C42.2331 46.8407 40.4706 48.6856 40.4706 50.9615V74.8626C40.4706 77.1385 42.2331 78.9835 44.4072 78.9835H67.2398C69.414 78.9835 71.1765 77.1385 71.1765 74.8626V50.9615C71.1765 48.6856 69.414 46.8407 67.2398 46.8407H44.4072Z" fill="#53DB78"/>
<path d="M150.163 98V26H165.463V98H150.163ZM180.049 98V26H196.049L236.349 74V26H252.049V98H236.049L195.549 49.8V98H180.049ZM293.852 98V41.6H265.652V26H337.652V41.6H309.452V98H293.852ZM351.331 98V40.8C351.331 38.0667 351.998 35.6 353.331 33.4C354.665 31.1333 356.465 29.3333 358.731 28C360.998 26.6667 363.465 26 366.131 26H408.431C411.165 26 413.631 26.6667 415.831 28C418.098 29.3333 419.898 31.1333 421.231 33.4C422.631 35.6 423.331 38.0667 423.331 40.8V98H407.631V74.8H366.831V98H351.331ZM366.831 59.2H407.631V41.6H366.831V59.2ZM480.325 98L438.625 26H456.625L486.825 78.3L517.025 26H534.925L493.225 98H480.325ZM546.144 98V40.8C546.144 38.0667 546.81 35.6 548.144 33.4C549.477 31.1333 551.277 29.3333 553.544 28C555.81 26.6667 558.277 26 560.944 26H603.244C605.977 26 608.444 26.6667 610.644 28C612.91 29.3333 614.71 31.1333 616.044 33.4C617.444 35.6 618.144 38.0667 618.144 40.8V98H602.444V74.8H561.644V98H546.144ZM561.644 59.2H602.444V41.6H561.644V59.2Z" fill="#53DB78"/>
</svg>

<svg xmlns="http://www.w3.org/2000/svg" width="644" height="120" fill="none"><path fill="#53DB78" fill-rule="evenodd" d="M89.679 25c1.087 0 1.968.923 1.968 2.06v19.373h.012c8.5.22 15.341 7.32 15.341 16.067 0 8.751-6.848 15.853-15.353 16.066v12.78c0 4.78-3.701 8.654-8.267 8.654H70.741l-.036-.37c-.756-7.77-6.94-13.86-14.52-14.048l-.361-.005c-7.744 0-14.114 6.16-14.882 14.053l-.036.37H21.968C20.881 100 20 99.077 20 97.94V27.06c0-1.137.881-2.06 1.968-2.06zM44.407 46.84c-2.174 0-3.936 1.846-3.936 4.121v23.902c0 2.275 1.762 4.12 3.936 4.12H67.24c2.174 0 3.937-1.845 3.937-4.12V50.962c0-2.276-1.763-4.121-3.937-4.121z" clip-rule="evenodd"/><path fill="#53DB78" d="M150.163 98V26h15.3v72zm29.886 0V26h16l40.3 48V26h15.7v72h-16l-40.5-48.2V98zm113.803 0V41.6h-28.2V26h72v15.6h-28.2V98zm57.479 0V40.8q0-4.1 2-7.4a15 15 0 0 1 5.4-5.4q3.4-2 7.4-2h42.3q4.1 0 7.4 2a14.97 14.97 0 0 1 5.4 5.4q2.1 3.3 2.1 7.4V98h-15.7V74.8h-40.8V98zm15.5-38.8h40.8V41.6h-40.8zM480.325 98l-41.7-72h18l30.2 52.3 30.2-52.3h17.9l-41.7 72zm65.819 0V40.8q0-4.1 2-7.4a14.97 14.97 0 0 1 5.4-5.4q3.4-2 7.4-2h42.3q4.1 0 7.4 2a15 15 0 0 1 5.4 5.4q2.1 3.3 2.1 7.4V98h-15.7V74.8h-40.8V98zm15.5-38.8h40.8V41.6h-40.8z"/></svg>
